web/public/images/ic-archived-pipeline.svg

<svg xmlns="http://www.w3.org/2000/svg" width="24" height="24"><path fill="#FFF" d="M20 21H4V10h2v9h12v-9h2zM3 3h18v6H3zm6.5 8h5c.28 0 .5.22.5.5V13H9v-1.5c0-.28.22-.5.5-.5M5 5v2h14V5z"/></svg>

<?xml version="1.0" encoding="UTF-8"?><!DOCTYPE svg PUBLIC "-//W3C//DTD SVG 1.1//EN" "http://www.w3.org/Graphics/SVG/1.1/DTD/svg11.dtd"><svg xmlns="http://www.w3.org/2000/svg" xmlns:xlink="http://www.w3.org/1999/xlink" version="1.1" width="24" height="24" viewBox="0 0 24 24"><path d="M20 21H4V10H6V19H18V10H20V21M3 3H21V9H3V3M9.5 11H14.5C14.78 11 15 11.22 15 11.5V13H9V11.5C9 11.22 9.22 11 9.5 11M5 5V7H19V5H5Z" fill="#FFFFFF" /></svg>
